Sources/FrostedUI/Resources/Icons.xcassets/mobilePhone12.imageset/mobile-phone-12.svg

<svg width="12" height="12" viewBox="0 0 12 12" fill="none" xmlns="http://www.w3.org/2000/svg" data-fui-icon="true">
  <path
    d="M7.625 0.125C8.86767 0.125 9.875 1.13237 9.875 2.375V9.625C9.875 10.8677 8.86766 11.875 7.625 11.875H4.375C3.13237 11.875 2.125 10.8677 2.125 9.625V2.375C2.125 1.13236 3.13236 0.125 4.375 0.125H7.625ZM4.375 1.625C3.96079 1.625 3.625 1.96079 3.625 2.375V9.625C3.625 10.0392 3.96078 10.375 4.375 10.375H7.625C8.03924 10.375 8.375 10.0392 8.375 9.625V2.375C8.375 1.96078 8.03923 1.625 7.625 1.625H4.375ZM7.125 8.09375C7.53921 8.09375 7.875 8.42954 7.875 8.84375C7.875 9.25796 7.53921 9.59375 7.125 9.59375H4.875C4.46079 9.59375 4.125 9.25796 4.125 8.84375C4.125 8.42954 4.46079 8.09375 4.875 8.09375H7.125Z"
    fill="currentColor"
  />
</svg>

<svg xmlns="http://www.w3.org/2000/svg" width="12" height="12" fill="none" data-fui-icon="true" viewBox="0 0 12 12"><path fill="currentColor" d="M7.625.125a2.25 2.25 0 0 1 2.25 2.25v7.25a2.25 2.25 0 0 1-2.25 2.25h-3.25a2.25 2.25 0 0 1-2.25-2.25v-7.25a2.25 2.25 0 0 1 2.25-2.25zm-3.25 1.5a.75.75 0 0 0-.75.75v7.25c0 .414.336.75.75.75h3.25a.75.75 0 0 0 .75-.75v-7.25a.75.75 0 0 0-.75-.75zm2.75 6.469a.75.75 0 0 1 0 1.5h-2.25a.75.75 0 0 1 0-1.5z"/></svg>
